X:1
T:Title
%%score { ( 1 4 ) | ( 2 3 ) }
L:1/8
M:3/4
K:F
V:1 treble nm="Grand Piano"
V:4 treble 
V:2 bass 
V:3 bass 
V:1
 z2 z2[Q:1/4=106] A2 | B2 A2 F2 | G2 F2 [B,CG]2 | [A,CF]4 [CEG]2 | E2- [Ec]2 [Ge]2 | [Fd]2 c2 d2 | %6
 [Ec]6 |[M:1/4] G2 |[M:3/4] A2 B2 c2 | d4 c2 | c2 A2 F2 | G4 [Ec]2 | c2 A2 F2 | G2 F2 G2 | F6 |] %15
V:2
 z2 z2 [F,CF]2 | D2 z2 z2 | B,2 z2 z2 | F,4 C,2 | z2 G,2 [C,G,]2 | z2[K:treble] E2 [G,F]2 | %6
 [C,G,]6 |[M:1/4] [C,G,C]2 |[M:3/4][K:treble] [F,A,F]2 [G,B,G]2 [A,CA]2 | [B,DB]4 [A,CA]2 | %10
 [A,CA]2[K:bass] [F,A,F]2 [A,,F,A,]2 | [C,G,C]4 [C,G,]2 | [F,F]2- [F,CF]2 [F,A,C]2 | B,2 z2 z2 | %14
 [F,A,C]6 |] %15
V:3
 x6 | [F,F]2- [F,CF]2 [F,A,C]2 | [C,C]2- [C,A,C]2 C,2 | x6 | C,4 z2 | G,4[K:treble] z2 | x6 | %7
[M:1/4] x2 |[M:3/4][K:treble] x6 | x6 | x2[K:bass] x4 | x6 | A,2 z2 z2 | %13
 [C,C]2- [C,A,C]2 [C,B,C]2 | x6 |] %15
V:4
 x6 | x6 | x6 | x6 | [CG]2 z2 z2 | x6 | x6 |[M:1/4] x2 |[M:3/4] x6 | x6 | x6 | x6 | x6 | x6 | x6 |] %15

